X: 1
T: the Old Wigg
C: 
R: jig
Z: 2019 John Chambers <jc:trillian.mit.edu>
S: Email from Brian Stanton, discussion on ECD list.
M: 6/8
L: 1/8
Q: "Brightly"
K: D
A |\
"D"ded d2e | fdd d2d | "Em"efe e2f | "G"g3 b2d |\
"D"ded d2e | fdd d2a | "G"bgf "A7"edc | "D"d3- d2 :|
|: d |\
"D"fff f2a | ddd d2f | A2A AFA | "Em"AGF "A"E2d |\
"D"fgf afd | "A7"efe gec | "D"ABA AdA | "A7"GFE "D"D2 :|
